img/footer/youtube-icon.svg

<svg width="20" height="18" viewBox="0 0 20 18" fill="none" xmlns="http://www.w3.org/2000/svg">
<rect width="20" height="18" fill="#1E1E1E"/>
<g id="Marketing solutions landing page design">
<rect width="1512" height="7280.19" transform="translate(-280 -6925)" fill="#0D0D11"/>
<g id="div">
<g id="div_2">
<g id="div_3">
<g id="div#w-node-_0dfbe7a0-261a-0002-65c5-22e86775eb21-6775eb1b">
<g id="div_4">
<g id="a#w-node-_0dfbe7a0-261a-0002-65c5-22e86775eb34-6775eb1b">
<g id="Frame">
<path id="Vector" d="M17.6657 4.87759C17.4817 4.13853 16.9395 3.55647 16.2511 3.35894C15.0033 3 10 3 10 3C10 3 4.99669 3 3.7489 3.35894C3.06052 3.5565 2.51835 4.13853 2.33434 4.87759C2 6.21719 2 9.01213 2 9.01213C2 9.01213 2 11.8071 2.33434 13.1467C2.51835 13.8857 3.06052 14.4435 3.7489 14.6411C4.99669 15 10 15 10 15C10 15 15.0033 15 16.2511 14.6411C16.9395 14.4435 17.4817 13.8857 17.6657 13.1467C18 11.8071 18 9.01213 18 9.01213C18 9.01213 18 6.21719 17.6657 4.87759ZM8.36363 11.5497V6.47453L12.5454 9.01219L8.36363 11.5497Z" fill="#75757F"/>
</g>
<rect x="-7.5" y="-8.98438" width="35" height="35" rx="17.5" stroke="#81818B" stroke-opacity="0.9"/>
</g>
</g>
</g>
</g>
</g>
</g>
</g>
</svg>

<svg xmlns="http://www.w3.org/2000/svg" width="20" height="18" fill="none"><path fill="#1E1E1E" d="M0 0h20v18H0z"/><path fill="#0D0D11" d="M-280-6925h1512V355.19H-280z"/><path fill="#75757F" d="M17.666 4.878c-.184-.74-.727-1.322-1.415-1.52C15.003 3 10 3 10 3s-5.003 0-6.251.359c-.688.198-1.23.78-1.415 1.519C2 6.218 2 9.012 2 9.012s0 2.795.334 4.135A2.05 2.05 0 0 0 3.75 14.64C4.997 15 10 15 10 15s5.003 0 6.251-.359a2.05 2.05 0 0 0 1.415-1.494C18 11.807 18 9.012 18 9.012s0-2.795-.334-4.134ZM8.364 11.55V6.475l4.181 2.537-4.181 2.538Z"/><rect width="35" height="35" x="-7.5" y="-8.984" stroke="#81818B" stroke-opacity=".9" rx="17.5"/></svg>
